X: 1
T: String Quartet in C Major opus 50 no 2 mvt 2
C: Franz Joseph Haydn
%%abc-version 2.0
%%abcx-abcm2ps-target-version 5.9.1 (29 Sep 2008)
%%abc-creator hum2abc beta
%%abcx-conversion-date 2021/02/14 14:38:32
%%abc-copyright Copyright (c) 1994, 2000 Center for Computer Assisted Research in the Humanities
%%abc-edited-by Frances Bennion
%%abcx-initial-encoding-date 1997/04/15
%%gracespace 0 6 6
%%humdrum-veritas 348144375
%%humdrum-veritas-data 1056586105
%%linebreak <none>
%%barnumbers 0
L: 1/8
M: 4/4
N: Derived from op50n2-02.krn
Q: "Adagio cantabile"
%%staves [1 2 3 4]
V: 1
V: 2
V: 3 clef=alto
V: 4 clef=bass
K: F
[V:1]z6 z2 [I:setbarnb1]|
[V:2]z6 C2 |
[V:3]z6 z2 |
[V:4]z6 z2 |
[V:1]Cz Cz Cz Ez |
[V:2]F6 G3/A/ |
[V:3]A,z A,z A,z B,z |
[V:4]F,z F,z F,z F,z |
[V:1]Fz Cz A,z3 |
[V:2]F2 z2 >C2 FA |
[V:3]A,z A,z F,z3 |
[V:4]F,z F,z F,z3 |
[V:1]z2 Cz Fz Gz |
[V:2]c4- c=B _B3/c/ |
[V:3]z2 A,z Dz Ez |
[V:4]z2 F,z F,z F,z |
[V:1]Az Cz A,z3 |
[V:2]A2 z2 >F2 Ac |
[V:3]Fz A,z F,z3 |
[V:4]F,z F,z F,z3 |
[V:1]z2 Dz Dz Dz |
[V:2]^ce/d/ d2- d/F/B/d/ fd |
[V:3]z2 B,z B,z B,z |
[V:4]z2 F,z F,z F,z |
[V:1]z2 Cz Cz Fz |
[V:2]=B/c/d/c/ c2- c/c/B/c/ c_B/A/ |
[V:3]z2 A,z A,z F,z |
[V:4]z2 F,z F,z A,,z |
[V:1]Dz Gz Fz Ez |
[V:2]Gd2 c//B//A//G// F2 G/>F/G3//A// |
[V:3]G,z B,z A,z B,z |
[V:4]B,,z B,,z C,z C,z |
[V:1]F(3:2:2z4 z/ c2|
[V:2]F2 C/>D/B,/>C/ A,z3 |
[V:3]A,z A,/>B,/G,/>A,/ F,z3 |
[V:4]F,2 z6 |
[V:1]f6 g3/a/ |
[V:2]A,2 =B,2 C2 E2 |
[V:3]A,2 _A,2 =A,2 B,2 |
[V:4]F,2 D,2 C,4 |
[V:1]f2 z2 >c2 fa |
[V:2]Fz Cz A,z3 |
[V:3]A,z A,z F,z3 |
[V:4]F,z F,,z F,,2 z2 |
[V:1](3:2:2c'4- c'/=b_b3/ c'/|
[V:2]z2 Cz Fz Gz |
[V:3]z2 A,z Dz Ez |
[V:4]z2 F,z F,z F,z |
[V:1]a2 z2 >f2 ac' |
[V:2]Az Cz A,z3 |
[V:3]Fz A,z F,z3 |
[V:4]F,2 z6 |
[V:1]^c'e'/d'/ d'2 f//_g//=g//_a//=a//b//=b//=c'// ^c'//d'//_e'//=e'//f'/d'/ |
[V:2]z2 Bz Bz Bz |
[V:3]z2 Dz Dz Dz |
[V:4]z2 F,z F,z F,z |
[V:1]=b/c'/d'/c'/ c'2 b//c'//b//c'//b//c'//b//c'// c'_b/a/ |
[V:2]z2 Az Fz Fz |
[V:3]z2 Cz Cz Cz |
[V:4]z2 F,z A,z A,z |
[V:1]g/d'/^c'/=c'/ =b/_b/a/b//g// f2 g/>f/g3//a// |
[V:2]D2 z2 Az Bz |
[V:3]D2 z2 Cz E,z |
[V:4]B,2 z2 Cz C,z |
[V:1]f2 z4 c2 |
[V:2]Az C/>D/B,/>C/ A,z3 |
[V:3]F,z A,/>B,/G,/>A,/ F,z3 |
[V:4]F,2 z6 |
[V:1]a6 g3/a/ |
[V:2]cz cz ^cz cz |
[V:3]Az Az Gz Az |
[V:4]Fz Fz Ez Ez |
[V:1]f4 z2 f2 |
[V:2]dz Az Az Az |
[V:3]Az Fz Fz Fz |
[V:4]Dz Dz Cz Cz |
[V:1]_A,G, (3:2:2f'2-f'//e'/d'/ c'/=b/a/g/ f/|
[V:2]Fz Fz Gz Gz |
[V:3]Dz Dz Dz Dz |
[V:4]=B,z B,z B,z B,z |
[V:1]f2 e2 zg gc' |
[V:2]Gz Gz cz cz |
[V:3]Cz Cz Cz Cz |
[V:4]Cz Cz E,z E,z |
[V:1]^g=b/a/ a3 =g/f/ e/d/e/c/ |
[V:2]cz ^cz dz =cz |
[V:3]Cz Ez Fz Az |
[V:4]F,z F,z F,z ^F,z |
[V:1]g8- |
[V:2]=B2 <z2 c7/ d/ |
[V:3]D2 <z2 G4 |
[V:4]G,z G,,z E7/ F/ |
[V:1]g8- |
[V:2]=BB cc dd ef |
[V:3]FF EE Dz3 |
[V:4]DD CC =B,B, CD |
[V:1]g8- |
[V:2]f2 e2 e7/ f/ |
[V:3]z4 c7/ d/ |
[V:4]D2 C2 z2 C2 |
[V:1]g8- |
[V:2]dd ee f3/g//a// a/g/g/f/ |
[V:3]=BB ^cc d3/e//f// f/e/e/d/ |
[V:4]FF EE DC =B,B, |
[V:1]g4 c'7/ d'/ |
[V:2]f2 e2 c4 |
[V:3]d2 c2 G4- |
[V:4]C2 C,2 E4 |
[V:1]=bz2 c'/>d'/ bc'/>d'/ bc'3//d'// |
[V:2]dz2 c dc dc |
[V:3]Gz2 G2 G2 G- |
[V:4]Fz2 E FE FE |
[V:1]=b2 f'4 e'2 |
[V:2]d2 =B2 d2 c2 |
[V:3]G2 _A2 G4 |
[V:4]F2 D2 =B,2 C2 |
[V:1]d'//^c'//e'//d'//f'//e'//d'//c'// d'//c'//e'//d'//f'//e'//d'//c'// d'//c'//e'//d'//f'//e'//d'//c'// d'//c'//d'//e'//f'//d'//f'//d'// |
[V:2]dz dz dz dz |
[V:3]Az Az Az Az |
[V:4]Fz Fz Fz Fz |
[V:1]c'/g'/g'/g'/ g'f'//e'//d'//c'// d'4 |
[V:2]ez ez =Bz Bz |
[V:3]cz cz Fz Fz |
[V:4]Gz G,z G,z G,z |
[V:1]c'7 b/a/ |
[V:2]_e8 |
[V:3]G8 |
[V:4]C,,/_E,,/G,,/C,/ _E,/G,/=B,/C/ D/_E/F/G/ F/E/D/C/ |
[V:1]^f6- f/f/g/a/ |
[V:2]A8 |
[V:3]c8 |
[V:4]D/D,,/^F,,/A,,/ C,/D,/^F,/A,/ =B,/C/D/_E/ D/C/_B,/A,/ |
[V:1]b6- b/b/c'/d'/ |
[V:2]d8 |
[V:3]G8 |
[V:4]G,/G,,/B,,/D,/ ^F,/G,/A,/B,/ =B,/C/^C/D/ =C/_B,/A,/G,/ |
[V:1]e6- e/e/f/g/ |
[V:2]B7 G |
[V:3]G4 C4 |
[V:4]C,,/E,,/G,,/C,/ E,/G,/B,/C/ E/F/G/F/ E/D/C/B,/ |
[V:1]f4 =B4 |
[V:2]A4 F2 z2 |
[V:3]C4 D2 z2 |
[V:4]A,/C,,/F,,/A,,/ C,/F,/A,/C/ z/D,,/F,,/=B,,/ D,z |
[V:1]c6 _d/=d/_e/=e/ |
[V:2]E6 z2 |
[V:3]C6 z2 |
[V:4]C,6 z2 |
[V:1]f6 g3/a/ |
[V:2]Cz Cz Cz Ez |
[V:3]A,z A,z A,z B,z |
[V:4]F,z F,z F,z F,z |
[V:1]f2 z2 z//A,//B,//C//D//E//F//G// A//B//c//d//e//f//g//a/8b/8 |
[V:2]Fz Cz A,z3 |
[V:3]A,z A,z F,z3 |
[V:4]F,z F,z F,z3 |
[V:1](3:2:2c'4- c'/=b_b3/ c'/|
[V:2]z2 Cz Fz Gz |
[V:3]z2 A,z Dz Ez |
[V:4]z2 F,z F,z F,z |
[V:1]a2 z2 >f2 ac' |
[V:2]Az Cz A,z3 |
[V:3]Fz A,z F,z3 |
[V:4]F,z F,z F,z3 |
[V:1]_e'4- e'/d'/c'/b/ a/g/f/_e/ |
[V:2]Fz Fz Fz Fz |
[V:3]Cz Cz Cz Cz |
[V:4]A,z A,z A,z A,z |
[V:1]_e/d/^c/d/ (3:2:2d'2-d'//c'/b/ a/a/g/a/ f/|
[V:2]Fz ^Fz Gz Gz |
[V:3]Dz Dz Dz Dz |
[V:4]B,z B,z B,z =B,z |
[V:1]c'8- |
[V:2]G2 z2 f7/ g/ |
[V:3]E2 C,2 z2 c2 |
[V:4]C2 z2 A7/ B/ |
[V:1]c'8- |
[V:2]ee ff gg ab |
[V:3]BB AA Gz3 |
[V:4]GG FF EE FG |
[V:1]c'8- |
[V:2]b2 a2 a7/ b/ |
[V:3]z4 F7/ G/ |
[V:4]G2 F2 z2 F,2 |
[V:1]c'8- |
[V:2]gg aa b3/c'//d'// d'/c'/c'/b/ |
[V:3]EE ^FF G3/A//B// B/A/A/G/ |
[V:4]B,B, A,A, G,F, E,E, |
[V:1]c'4 c'7/ d'/ |
[V:2]b2 a2 Az Az |
[V:3]G2 F2 Fz Fz |
[V:4]F,2 F,2 _E,z E,z |
[V:1]b(3:2:18f'2 _e'/d'/c'/b/ a/g/^f/a/ g/b/a/c'/ b/^c'/d'/b/ g/|
[V:2]Bz dz dz3 |
[V:3]Fz Fz Gz3 |
[V:4]D,z B,,z B,z3 |
[V:1](3f/e/d'/(3c'/b/a/ (3g/f/e/(3g/b/d'/ (3c'/b/a/(3g/f/e/ (3g/f/a/(3g/b/a/ |
[V:2]G2 z2 F2 z2 |
[V:3]C2 z2 C2 z2 |
[V:4]B,2 z2 A,2 z2 |
[V:1](3c'/b/a/(3g/b/a/ (3g/f/e/(3d/c/B/ (3A/c/B/(3d/c/f/ (3e/g/f/(3a/f/c/ |
[V:2]B2 z2 A2 z2 |
[V:3]C2 z2 C2 z2 |
[V:4]E,2 z2 F,2 z2 |
[V:1](3d/^F/G/(3A/B/F/ (3G/A/B/(3^c/d/A/ (3B/^f/g/(3a/b/f/ (3g/b/f/(3g/b/g/ |
[V:2]Gz Gz Gz Gz |
[V:3]Dz Dz Dz Dz |
[V:4]B,,z B,,z B,,z B,,z |
[V:1](3f/c'/c'/(3c'/=b/_b/ (3a/f'/f'/(3f'/c'/a/ g4 |
[V:2]Az Az Ez Ez |
[V:3]Fz Fz Cz Cz |
[V:4]C,z C,z C,z C,z |
[V:1](3f/a/g/(3f/e/d/ (3c/=B/A/(3G/A/F/ (3E/G/_B/(3c/e/g/ (3b/g/e/(3c/B/G/ |
[V:2]F4 G4- |
[V:3]=B,4 _B,4- |
[V:4]D,4 C,4- |
[V:1]E2 z2 B7/ c/ |
[V:2]G2 <z2 E4 |
[V:3]B,2 <z2 G4 |
[V:4]C,2 <z2 C2 ^C2 |
[V:1]A2 z2 (3:2:2G2-G//G/B/ z//d//|
[V:2]F2 z2 D3 z |
[V:3]F2 z2 B,3 z |
[V:4]D2 z2 B,,3 z |
[V:1]F2 z2 G2 z3/F/ |
[V:2]A,2 z2 B,2 z3/A,/ |
[V:3]A,2 z2 E,2 z3/F,/ |
[V:4]C,2 z2 C,2 z3/D,/ |
[V:1]F2 z2 B7/ c/ |
[V:2]A,2 z2 F2 E2 |
[V:3]F,2 z2 F2 G2 |
[V:4]D,2 z2 _D2 C2 |
[V:1]A2 z2 (3^F/G/_A/(3=A/B/=B/ (3c/^c/e/(3d/_B/G/ |
[V:2]F2 z2 D3 z |
[V:3]F2 z2 B,3 z |
[V:4]F,2 z2 B,,3 z |
[V:1]F2 z2 G2 z3/F/ |
[V:2]A,2 z2 B,2 z3/A,/ |
[V:3]A,2 z2 E,2 z3/F,/ |
[V:4]C,2 z2 C,2 z3/F,,/ |
[V:1]F2 z6 |]
[V:2]A,2 z6 |]
[V:3]F,2 z6 |]
[V:4]F,,2 z6 |]

